build/web/dist/spark/icons/AlarmOffFill.svg

<svg viewBox="0 0 24 24" xmlns="http://www.w3.org/2000/svg" data-title="AlarmOffFill" fill="currentColor" stroke="none">
  <path d="M15.0185 4.41625C14.7021 4.26233 14.3745 4.13202 14.0383 4.02645C13.9968 2.90063 13.0566 2.00049 11.9029 2.00049C10.7493 2.00049 9.80919 2.90052 9.76761 4.02626C8.70027 4.36128 7.719 4.94577 6.91308 5.74279C5.59072 7.05055 4.84866 8.82327 4.84866 10.6707C4.84866 12.4809 4.64856 13.7684 4.37308 14.6951C4.29386 14.9616 4.33136 15.2344 4.4561 15.4605L15.3518 4.67449C15.3518 4.67449 15.1509 4.48069 15.0185 4.41625Z"/>
  <path fill-rule="evenodd" clip-rule="evenodd" d="M18.1 7.34102L21.6996 3.79732C22.1001 3.403 22.1001 2.76368 21.6996 2.36936C21.2991 1.97504 20.6497 1.97504 20.2491 2.36936L2.3004 20.0395C1.89987 20.4338 1.89987 21.0731 2.3004 21.4675C2.70094 21.8618 3.35034 21.8618 3.75088 21.4675L5.63198 19.6156H8.77371L8.77495 19.6203C8.9552 20.3019 9.36006 20.9053 9.92607 21.3361C10.4921 21.7668 11.1873 22.0005 11.9027 22.0005C12.6181 22.0005 13.3133 21.7668 13.8793 21.3361C14.4453 20.9053 14.8502 20.3019 15.0304 19.6203L15.0317 19.6156H18.011C18.9723 19.6156 19.831 19.1902 20.1968 18.3107C20.5257 17.5199 20.3327 16.6389 19.9348 15.9191C19.4381 15.0207 18.9566 13.4737 18.9566 10.6707C18.9566 9.49726 18.6572 8.35406 18.1 7.34102Z"/>
</svg>

<svg viewBox="0 0 24 24" xmlns="http://www.w3.org/2000/svg" data-title="AlarmOffFill" fill="currentColor" stroke="none">
  <path d="M15.02 4.42c-.32-.15-.64-.28-.98-.39-.04-1.13-.98-2.03-2.14-2.03s-2.09.9-2.14 2.03c-1.07.34-2.05.92-2.85 1.72-1.32 1.31-2.06 3.08-2.06 4.93s-.2 3.1-.48 4.02c-.08.27-.04.54.08.77L15.35 4.67s-.2-.19-.33-.26ZM18.1 7.34l3.6-3.54c.4-.39.4-1.03 0-1.43s-1.05-.39-1.45 0L2.3 20.04c-.4.39-.4 1.03 0 1.43.4.39 1.05.39 1.45 0l1.88-1.85h3.14c.18.69.59 1.29 1.15 1.72.57.43 1.26.66 1.98.66s1.41-.23 1.98-.66c.57-.43.97-1.03 1.15-1.72h0s2.98 0 2.98 0c.96 0 1.82-.43 2.19-1.3.33-.79.14-1.67-.26-2.39-.5-.9-.98-2.45-.98-5.25 0-1.17-.3-2.32-.86-3.33Z"/>
</svg>
